Sources/FrostedUI/Resources/Icons.xcassets/bellSlash24.imageset/bell-slash-24.svg

<svg width="24" height="24" viewBox="0 0 24 24" fill="none" xmlns="http://www.w3.org/2000/svg" data-fui-icon="true">
  <path
    d="M22.7197 0.219727C23.0126 -0.0731667 23.4874 -0.0731667 23.7803 0.219727C24.0732 0.51262 24.0732 0.98738 23.7803 1.28027L1.28027 23.7803C0.98738 24.0732 0.51262 24.0732 0.219727 23.7803C-0.0731667 23.4874 -0.0731667 23.0126 0.219727 22.7197L22.7197 0.219727ZM19.8272 7.35349C19.9906 7.19003 20.2688 7.26548 20.3206 7.49076C20.5657 8.55643 20.6734 9.53252 20.7197 10.249C20.7611 10.889 20.9916 11.4747 21.3916 11.8936L21.7393 12.2578C23.4662 14.0652 23.4245 16.9236 21.6455 18.6797C20.7887 19.5252 19.6325 19.9999 18.4287 20H16.3039C16.1382 20 16.005 20.1346 15.9948 20.3C15.9246 21.4452 15.4521 22.3602 14.7363 22.9961C13.9729 23.6742 12.9759 23.997 12.0039 23.9971C11.0319 23.9971 10.035 23.6741 9.27148 22.9961C8.54332 22.3493 8.06706 21.4137 8.00974 20.2408C8.00324 20.1079 7.89608 20 7.76307 20C7.54851 20 7.44106 19.7406 7.59277 19.5889L8.59377 18.5879C8.65003 18.5316 8.72634 18.5 8.8059 18.5H18.4287C19.2381 18.4999 20.0157 18.1808 20.5918 17.6123C21.788 16.4316 21.8163 14.5093 20.6553 13.2939L20.3076 12.9297C19.6228 12.2128 19.2827 11.274 19.2227 10.3467C19.1877 9.80638 19.1151 9.12966 18.9759 8.39294C18.9573 8.2944 18.9879 8.19276 19.0588 8.12186L19.8272 7.35349ZM9.80391 20C9.63822 20 9.5022 20.1347 9.51704 20.2997C9.58165 21.0184 9.87833 21.5293 10.2676 21.875C10.7227 22.2791 11.3512 22.4971 12.0039 22.4971C12.6566 22.497 13.2851 22.2791 13.7402 21.875C14.1294 21.5293 14.4262 21.0183 14.4908 20.2997C14.5056 20.1347 14.3696 20 14.2039 20H9.80391ZM12.001 0.0878906C14.6989 0.0880003 16.5898 1.10516 17.8968 2.5286C18.0028 2.64404 17.9955 2.82189 17.8847 2.93271L17.2509 3.56646C17.1258 3.69158 16.9206 3.6813 16.8012 3.55071C15.7448 2.39531 14.2268 1.588 12.001 1.58789C8.98835 1.58805 7.26887 3.0642 6.24023 4.88477C5.18482 6.75281 4.86563 8.98423 4.77734 10.3467C4.71724 11.274 4.37822 12.2128 3.69336 12.9297L3.3457 13.2939C2.28556 14.4035 2.21664 16.1023 3.123 17.2881C3.22081 17.4161 3.21858 17.5988 3.10469 17.7127L2.46588 18.3515C2.34652 18.4709 2.15122 18.4687 2.04349 18.3387C0.578291 16.5712 0.641508 13.9526 2.26074 12.2578L2.6084 11.8936C3.00848 11.4748 3.23971 10.8899 3.28125 10.25C3.3748 8.80625 3.7131 6.3067 4.93359 4.14648C6.18094 1.93884 8.35758 0.0880525 12.001 0.0878906Z"
    fill="currentColor"
  />
</svg>

<svg xmlns="http://www.w3.org/2000/svg" width="24" height="24" fill="none" data-fui-icon="true" viewBox="0 0 24 24"><path fill="currentColor" d="M22.72.22a.75.75 0 1 1 1.06 1.06l-22.5 22.5a.75.75 0 1 1-1.06-1.06zm-2.893 7.133a.292.292 0 0 1 .494.138c.245 1.065.352 2.042.399 2.758.041.64.272 1.226.672 1.645l.347.364A4.579 4.579 0 0 1 18.43 20h-2.125a.315.315 0 0 0-.31.3c-.07 1.145-.542 2.06-1.258 2.696-.763.678-1.76 1.001-2.732 1.001s-1.969-.323-2.733-1c-.728-.648-1.204-1.583-1.261-2.756A.25.25 0 0 0 7.763 20a.24.24 0 0 1-.17-.411l1-1.001a.3.3 0 0 1 .213-.088h9.623a3.08 3.08 0 0 0 2.227-5.206l-.348-.364c-.685-.717-1.025-1.656-1.085-2.583a16 16 0 0 0-.247-1.954.3.3 0 0 1 .083-.271zM9.804 20a.28.28 0 0 0-.287.3c.065.718.361 1.23.75 1.575.456.404 1.084.622 1.737.622s1.281-.218 1.736-.622c.39-.346.686-.857.75-1.575a.28.28 0 0 0-.286-.3zM12 .088c2.698 0 4.589 1.017 5.896 2.44a.29.29 0 0 1-.012.405l-.634.633a.31.31 0 0 1-.45-.015c-1.056-1.156-2.574-1.963-4.8-1.963-3.013 0-4.732 1.476-5.76 3.297-1.056 1.868-1.375 4.1-1.464 5.462-.06.927-.399 1.866-1.084 2.583l-.347.364a3.08 3.08 0 0 0-.223 3.994.324.324 0 0 1-.018.425l-.64.639a.285.285 0 0 1-.422-.013 4.58 4.58 0 0 1 .218-6.081l.347-.364c.4-.42.632-1.004.673-1.644.094-1.444.432-3.943 1.653-6.104C6.18 1.94 8.358.088 12 .088"/></svg>
